public/logos/U6.svg

<?xml version="1.0" encoding="UTF-8"?>
<svg xmlns="http://www.w3.org/2000/svg" xmlns:xlink="http://www.w3.org/1999/xlink" width="176pt" height="13.09pt" viewBox="0 0 176 13.09" version="1.1">
<defs>
<clipPath id="clip1">
  <path d="M 158 1 L 176 1 L 176 13.089844 L 158 13.089844 Z M 158 1 "/>
</clipPath>
</defs>
<g id="surface1">
<path style=" stroke:none;fill-rule:nonzero;fill:rgb(89.707947%,10.702515%,17.556763%);fill-opacity:1;" d="M 41.886719 4.386719 C 41.3125 5.027344 40.808594 5.585938 40.3125 6.144531 C 39.8125 6.707031 39.171875 7.152344 38.8125 7.894531 C 40.164062 7.894531 41.449219 7.894531 42.796875 7.894531 C 42.5 6.738281 42.210938 5.625 41.886719 4.386719 Z M 28.316406 3.976562 C 26.144531 4.035156 23.996094 3.6875 21.84375 3.886719 C 21.652344 4.507812 21.480469 5.058594 21.3125 5.601562 C 21.359375 5.636719 21.375 5.667969 21.394531 5.667969 C 23.371094 5.683594 25.347656 5.742188 27.324219 5.695312 C 28.238281 5.675781 28.609375 5.003906 28.316406 3.976562 Z M 44.878906 1.332031 C 46.125 4.964844 47.359375 8.574219 48.59375 12.183594 C 48.082031 12.371094 45.214844 12.421875 43.898438 12.269531 C 43.726562 11.660156 43.546875 11.011719 43.359375 10.332031 C 41.0625 10.332031 38.773438 10.332031 36.488281 10.332031 C 35.902344 10.953125 35.320312 11.574219 34.746094 12.183594 C 31.550781 12.183594 28.398438 12.183594 25.175781 12.183594 C 24.503906 10.945312 23.820312 9.6875 23.125 8.40625 C 22.210938 8.40625 21.316406 8.40625 20.375 8.40625 C 19.949219 9.660156 19.53125 10.898438 19.105469 12.15625 C 17.835938 12.15625 16.621094 12.15625 15.3125 12.15625 C 16.402344 8.5 17.667969 4.9375 18.847656 1.339844 C 19.0625 1.324219 19.230469 1.304688 19.398438 1.304688 C 22.75 1.308594 26.097656 1.3125 29.449219 1.3125 C 30.070312 1.3125 30.640625 1.46875 31.214844 1.714844 C 32.023438 2.0625 32.65625 2.871094 32.414062 3.980469 C 32.007812 5.863281 30.941406 7.257812 29.03125 7.851562 C 28.605469 7.984375 28.125 7.953125 27.578125 8.003906 C 28 8.707031 28.390625 9.371094 28.792969 10.023438 C 29.203125 10.683594 29.621094 11.339844 30.066406 12.042969 C 30.210938 11.929688 30.351562 11.839844 30.464844 11.730469 C 33.304688 8.9375 36.148438 6.144531 38.980469 3.34375 C 39.65625 2.675781 40.300781 1.972656 40.914062 1.332031 C 42.273438 1.332031 43.519531 1.332031 44.878906 1.332031 "/>
<path style=" stroke:none;fill-rule:nonzero;fill:rgb(89.707947%,10.702515%,17.556763%);fill-opacity:1;" d="M 104.773438 4.621094 C 104.4375 4.269531 104.074219 4.265625 103.699219 4.265625 C 102.085938 4.269531 100.472656 4.265625 98.859375 4.265625 C 98.644531 4.265625 98.425781 4.285156 98.171875 4.300781 C 97.972656 4.894531 97.785156 5.464844 97.578125 6.09375 C 97.84375 6.117188 98.03125 6.144531 98.21875 6.148438 C 99.859375 6.152344 101.496094 6.140625 103.136719 6.15625 C 103.820312 6.164062 104.375 5.953125 104.773438 5.300781 C 104.773438 5.109375 104.773438 4.871094 104.773438 4.621094 Z M 103.96875 8.496094 C 104.785156 9.824219 105.59375 11.148438 106.410156 12.480469 C 105.886719 12.664062 103.164062 12.714844 101.589844 12.578125 C 101.089844 12.054688 100.878906 11.3125 100.507812 10.664062 C 100.144531 10.027344 99.796875 9.382812 99.425781 8.710938 C 98.542969 8.710938 97.648438 8.710938 96.710938 8.710938 C 96.285156 9.96875 95.863281 11.207031 95.4375 12.460938 C 94.171875 12.460938 92.957031 12.460938 91.648438 12.460938 C 92.195312 10.625 92.832031 8.851562 93.417969 7.0625 C 94.011719 5.261719 94.617188 3.464844 95.234375 1.609375 C 95.519531 1.609375 95.757812 1.609375 96 1.609375 C 99.03125 1.613281 102.0625 1.605469 105.09375 1.628906 C 105.675781 1.632812 106.269531 1.683594 106.828125 1.832031 C 108.339844 2.230469 109.222656 3.132812 108.578125 5.027344 C 108.105469 6.40625 107.246094 7.539062 105.816406 8.074219 C 105.257812 8.28125 104.644531 8.347656 103.96875 8.496094 "/>
<path style=" stroke:none;fill-rule:nonzero;fill:rgb(89.707947%,10.702515%,17.556763%);fill-opacity:1;" d="M 160.316406 4.359375 C 158.683594 4.359375 157.101562 4.375 155.515625 4.351562 C 153.929688 4.332031 152.34375 4.277344 150.695312 4.238281 C 150.597656 4.484375 150.507812 4.703125 150.425781 4.921875 C 150.34375 5.148438 150.273438 5.382812 150.164062 5.710938 C 151.023438 5.710938 151.820312 5.714844 152.617188 5.71875 C 153.425781 5.71875 154.234375 5.71875 155.039062 5.71875 C 155.824219 5.71875 156.605469 5.71875 157.390625 5.722656 C 158.1875 5.722656 158.988281 5.726562 159.875 5.726562 C 159.671875 6.628906 159.382812 7.390625 159.082031 8.171875 C 155.84375 8.382812 152.632812 7.996094 149.394531 8.113281 C 149.144531 8.875 148.910156 9.585938 148.644531 10.402344 C 151.882812 10.410156 155.023438 10.417969 158.253906 10.425781 C 158.167969 11.316406 157.785156 12.023438 157.582031 12.777344 C 157.171875 13.007812 156.75 12.90625 156.347656 12.890625 C 155.957031 12.878906 155.570312 12.796875 155.183594 12.796875 C 151.761719 12.785156 148.335938 12.789062 144.910156 12.785156 C 144.644531 12.785156 144.382812 12.785156 144.03125 12.785156 C 145.136719 9.097656 146.398438 5.550781 147.578125 1.9375 C 152.089844 1.9375 156.578125 1.9375 161.152344 1.9375 C 160.910156 2.796875 160.6875 3.597656 160.316406 4.359375 "/>
<path style=" stroke:none;fill-rule:nonzero;fill:rgb(89.707947%,10.702515%,17.556763%);fill-opacity:1;" d="M 130.675781 1.691406 C 131.0625 1.539062 131.300781 1.664062 131.5625 1.832031 C 132.871094 2.683594 134.191406 3.511719 135.503906 4.355469 C 136.921875 5.265625 138.332031 6.183594 139.746094 7.09375 C 139.949219 7.222656 140.171875 7.328125 140.46875 7.488281 C 141.15625 5.640625 141.691406 3.777344 142.363281 1.933594 C 143.585938 1.933594 144.773438 1.933594 145.957031 1.933594 C 146.1875 2.253906 145.96875 2.523438 145.882812 2.777344 C 145.09375 5.1875 144.28125 7.589844 143.480469 9.996094 C 143.21875 10.78125 142.960938 11.570312 142.695312 12.355469 C 142.632812 12.535156 142.546875 12.710938 142.484375 12.859375 C 142.046875 13.039062 141.738281 12.839844 141.429688 12.632812 C 139.847656 11.578125 138.261719 10.527344 136.675781 9.476562 C 135.476562 8.683594 134.273438 7.894531 133.070312 7.101562 C 132.992188 7.050781 132.898438 7.019531 132.761719 6.953125 C 132.121094 8.875 131.488281 10.78125 130.867188 12.648438 C 130.234375 12.804688 127.800781 12.8125 127.089844 12.65625 C 128.285156 9 129.480469 5.351562 130.675781 1.691406 "/>
<g clip-path="url(#clip1)" clip-rule="nonzero">
<path style=" stroke:none;fill-rule:nonzero;fill:rgb(89.707947%,10.702515%,17.556763%);fill-opacity:1;" d="M 176 2.753906 C 175.601562 3.609375 174.988281 4.304688 174.535156 5.09375 C 174.425781 5.09375 174.351562 5.113281 174.289062 5.089844 C 172.601562 4.460938 170.847656 4.234375 169.054688 4.265625 C 168.203125 4.28125 167.34375 4.1875 166.503906 4.410156 C 166.269531 4.472656 166.027344 4.523438 165.800781 4.601562 C 165.496094 4.707031 165.324219 4.921875 165.300781 5.269531 C 165.589844 5.640625 166.042969 5.640625 166.425781 5.691406 C 167.507812 5.839844 168.605469 5.890625 169.691406 6.019531 C 170.847656 6.15625 172.007812 6.296875 173.109375 6.730469 C 174.179688 7.15625 174.5625 7.867188 174.316406 8.976562 C 174.0625 10.128906 173.339844 10.894531 172.378906 11.511719 C 171.269531 12.222656 170.023438 12.53125 168.753906 12.777344 C 167.234375 13.070312 165.699219 13.144531 164.164062 13.050781 C 162.5625 12.953125 160.96875 12.757812 159.421875 12.308594 C 159.261719 12.265625 159.121094 12.164062 158.921875 12.0625 C 159.332031 11.191406 160.011719 10.542969 160.441406 9.714844 C 161.230469 9.921875 161.976562 10.136719 162.726562 10.3125 C 163.199219 10.421875 163.679688 10.507812 164.160156 10.550781 C 164.984375 10.621094 165.816406 10.707031 166.640625 10.683594 C 167.4375 10.660156 168.238281 10.539062 169.023438 10.394531 C 169.476562 10.3125 169.925781 10.121094 170.078125 9.601562 C 170.105469 9.515625 170.085938 9.414062 170.085938 9.242188 C 169.851562 9.160156 169.613281 9.042969 169.359375 8.988281 C 168.980469 8.910156 168.59375 8.863281 168.207031 8.828125 C 167.453125 8.765625 166.695312 8.765625 165.949219 8.65625 C 164.820312 8.488281 163.699219 8.28125 162.585938 8.023438 C 161.929688 7.875 161.449219 7.410156 161.042969 6.757812 C 160.84375 5.328125 161.398438 4.265625 162.601562 3.472656 C 163.664062 2.773438 164.855469 2.464844 166.074219 2.191406 C 168.050781 1.753906 170.0625 1.832031 172.054688 1.9375 C 173.371094 2.007812 174.71875 2.144531 176 2.753906 "/>
</g>
<path style=" stroke:none;fill-rule:nonzero;fill:rgb(89.707947%,10.702515%,17.556763%);fill-opacity:1;" d="M 79.691406 7.964844 C 79.441406 6.875 79.179688 5.789062 78.828125 4.597656 C 77.738281 5.773438 76.738281 6.851562 75.699219 7.96875 C 76.453125 8.113281 79.078125 8.105469 79.691406 7.964844 Z M 78.035156 1.488281 C 79.265625 1.488281 80.480469 1.488281 81.761719 1.488281 C 81.859375 1.707031 81.976562 1.914062 82.054688 2.136719 C 83.171875 5.414062 84.285156 8.691406 85.394531 11.972656 C 85.441406 12.109375 85.46875 12.253906 85.503906 12.394531 C 84.953125 12.515625 81.613281 12.53125 80.835938 12.402344 C 80.679688 11.835938 80.515625 11.234375 80.335938 10.570312 C 80.089844 10.570312 79.851562 10.570312 79.613281 10.570312 C 78.390625 10.566406 77.164062 10.585938 75.945312 10.558594 C 75.140625 10.542969 74.34375 10.460938 73.527344 10.40625 C 72.878906 11.105469 72.246094 11.777344 71.636719 12.433594 C 70.101562 12.433594 68.621094 12.433594 67.152344 12.433594 C 67.132812 12.363281 67.121094 12.339844 67.121094 12.3125 C 67.121094 12.292969 67.121094 12.261719 67.136719 12.246094 C 67.191406 12.167969 67.246094 12.085938 67.316406 12.019531 C 69.339844 9.996094 71.355469 7.964844 73.394531 5.957031 C 74.910156 4.464844 76.457031 3.007812 78.035156 1.488281 "/>
<path style=" stroke:none;fill-rule:nonzero;fill:rgb(89.707947%,10.702515%,17.556763%);fill-opacity:1;" d="M 2.425781 1.269531 C 3.128906 1.125 5.554688 1.136719 6.195312 1.292969 C 6.125 1.566406 6.066406 1.84375 5.980469 2.113281 C 5.425781 3.777344 4.867188 5.441406 4.304688 7.101562 C 4.144531 7.570312 4.046875 8.042969 4.148438 8.554688 C 4.640625 9.410156 5.507812 9.59375 6.390625 9.664062 C 7.265625 9.730469 8.148438 9.734375 9.011719 9.523438 C 9.886719 9.308594 10.675781 8.929688 11.226562 8.191406 C 11.441406 7.90625 11.585938 7.554688 11.699219 7.214844 C 12.300781 5.4375 12.886719 3.65625 13.476562 1.875 C 13.546875 1.667969 13.621094 1.460938 13.714844 1.195312 C 14.9375 1.199219 16.164062 1.101562 17.457031 1.265625 C 17.382812 1.558594 17.34375 1.769531 17.277344 1.96875 C 16.640625 3.890625 15.980469 5.804688 15.363281 7.730469 C 14.789062 9.511719 13.585938 10.644531 11.882812 11.335938 C 10.628906 11.84375 9.335938 12.136719 7.988281 12.203125 C 7.257812 12.238281 6.523438 12.363281 5.804688 12.316406 C 4.273438 12.214844 2.746094 12.054688 1.367188 11.273438 C 0.253906 10.648438 -0.246094 9.632812 0.117188 8.386719 C 0.59375 6.75 1.148438 5.136719 1.675781 3.515625 C 1.925781 2.753906 2.183594 1.996094 2.425781 1.269531 "/>
<path style=" stroke:none;fill-rule:nonzero;fill:rgb(89.707947%,10.702515%,17.556763%);fill-opacity:1;" d="M 114.898438 1.785156 C 114.011719 4.457031 113.144531 7.066406 112.289062 9.644531 C 112.359375 9.726562 112.386719 9.792969 112.417969 9.792969 C 113.144531 9.855469 113.871094 9.945312 114.597656 9.953125 C 116.554688 9.976562 118.511719 9.964844 120.46875 9.96875 C 120.707031 9.96875 120.945312 9.988281 121.257812 10.003906 C 120.957031 10.90625 120.683594 11.730469 120.421875 12.527344 C 119.835938 12.667969 108.511719 12.691406 107.5 12.558594 C 108.675781 8.96875 109.847656 5.390625 111.03125 1.785156 C 112.304688 1.785156 113.542969 1.785156 114.898438 1.785156 "/>
<path style=" stroke:none;fill-rule:nonzero;fill:rgb(89.707947%,10.702515%,17.556763%);fill-opacity:1;" d="M 56.671875 1.488281 C 55.773438 4.246094 54.910156 6.90625 54.015625 9.660156 C 57.019531 9.667969 59.964844 9.675781 62.984375 9.683594 C 62.796875 10.632812 62.445312 11.425781 62.195312 12.242188 C 61.609375 12.382812 50.03125 12.386719 49.304688 12.234375 C 50.488281 8.648438 51.664062 5.070312 52.84375 1.488281 C 54.136719 1.488281 55.351562 1.488281 56.671875 1.488281 "/>
<path style=" stroke:none;fill-rule:nonzero;fill:rgb(89.707947%,10.702515%,17.556763%);fill-opacity:1;" d="M 125.578125 12.605469 C 124.320312 12.605469 123.109375 12.605469 121.792969 12.605469 C 122.332031 10.722656 122.984375 8.949219 123.546875 7.152344 C 124.101562 5.363281 124.71875 3.59375 125.316406 1.796875 C 126.585938 1.796875 127.804688 1.796875 129.101562 1.796875 C 128.609375 3.636719 127.976562 5.410156 127.390625 7.203125 C 126.800781 9.003906 126.183594 10.800781 125.578125 12.605469 "/>
<path style=" stroke:none;fill-rule:nonzero;fill:rgb(89.707947%,10.702515%,17.556763%);fill-opacity:1;" d="M 89.890625 1.617188 C 91.117188 1.617188 92.261719 1.617188 93.410156 1.621094 C 93.472656 1.621094 93.539062 1.671875 93.683594 1.734375 C 92.496094 5.304688 91.308594 8.867188 90.132812 12.402344 C 89.402344 12.535156 86.925781 12.523438 86.3125 12.382812 C 87.5 8.808594 88.6875 5.238281 89.890625 1.617188 "/>
<path style=" stroke:none;fill-rule:nonzero;fill:rgb(89.707947%,10.702515%,17.556763%);fill-opacity:1;" d="M 133.71875 0 C 133.699219 0.0234375 133.679688 0.046875 133.695312 0.0273438 C 133.675781 0.0429688 133.699219 0.0234375 133.722656 0.00390625 L 133.71875 0 "/>
</g>
</svg>

<svg xmlns="http://www.w3.org/2000/svg" width="176pt" height="17.453" viewBox="0 0 176 13.09"><defs><clipPath id="a"><path d="M158 1h18v12.09h-18Zm0 0"/></clipPath></defs><path d="M41.887 4.387c-.575.64-1.078 1.199-1.575 1.758-.5.562-1.14 1.007-1.5 1.75h3.985c-.297-1.157-.586-2.27-.91-3.508m-13.57-.41c-2.172.058-4.32-.29-6.473-.09l-.532 1.715c.047.035.063.066.083.066 1.976.016 3.953.074 5.93.027.913-.02 1.284-.691.991-1.718m16.562-2.645c1.246 3.633 2.48 7.242 3.715 10.852-.512.187-3.38.238-4.696.086q-.257-.916-.539-1.938h-6.87c-.587.621-1.169 1.242-1.743 1.852h-9.57l-2.051-3.778h-2.75c-.426 1.254-.844 2.492-1.27 3.75h-3.793c1.09-3.656 2.356-7.219 3.536-10.816.215-.016.382-.035.55-.035q5.026.007 10.051.008c.621 0 1.192.156 1.766.402.808.347 1.441 1.156 1.2 2.265-.407 1.883-1.474 3.278-3.384 3.872-.426.132-.906.101-1.453.152.422.703.813 1.367 1.215 2.02.41.66.828 1.316 1.273 2.019.145-.113.286-.203.399-.313 2.84-2.793 5.683-5.585 8.515-8.386.676-.668 1.32-1.371 1.934-2.012zM104.773 4.621c-.335-.351-.699-.355-1.074-.355-1.613.004-3.226 0-4.84 0-.214 0-.433.02-.687.035-.2.594-.387 1.164-.594 1.793.266.023.453.05.64.054 1.641.004 3.278-.007 4.919.008.683.008 1.238-.203 1.636-.855zm-.804 3.875c.816 1.328 1.625 2.652 2.441 3.984-.523.184-3.246.235-4.82.098-.5-.523-.711-1.265-1.082-1.914-.363-.637-.711-1.281-1.082-1.953H96.71l-1.273 3.75h-3.79c.547-1.836 1.184-3.61 1.77-5.398.594-1.801 1.2-3.598 1.816-5.454H96c3.031.004 6.063-.004 9.094.02.582.004 1.176.055 1.734.203 1.512.398 2.395 1.3 1.75 3.195-.473 1.38-1.332 2.512-2.762 3.047-.558.207-1.171.274-1.847.422M160.316 4.36c-1.632 0-3.214.015-4.8-.008-1.586-.02-3.172-.075-4.82-.114-.098.246-.188.465-.27.684-.082.226-.153.46-.262.789.86 0 1.656.004 2.453.008h2.422c.785 0 1.566 0 2.352.004.797 0 1.597.004 2.484.004-.203.902-.492 1.664-.793 2.445-3.238.21-6.45-.176-9.687-.059-.25.762-.485 1.473-.75 2.29l9.609.023c-.086.89-.469 1.597-.672 2.351-.41.23-.832.13-1.234.114-.391-.012-.778-.094-1.164-.094-3.422-.012-6.848-.008-10.274-.012h-.879c1.106-3.687 2.367-7.234 3.547-10.847h13.574c-.242.859-.464 1.66-.836 2.421M130.676 1.691c.387-.152.625-.027.887.141 1.308.852 2.628 1.68 3.94 2.523 1.419.91 2.829 1.829 4.243 2.739.203.129.426.234.723.394.687-1.847 1.222-3.71 1.894-5.554h3.594c.23.32.012.59-.074.843-.79 2.41-1.602 4.813-2.403 7.22-.261.784-.52 1.573-.785 2.358-.062.18-.148.356-.21.504-.438.18-.747-.02-1.055-.226q-2.374-1.582-4.754-3.156c-1.2-.793-2.403-1.582-3.606-2.375-.078-.051-.172-.082-.308-.149l-1.895 5.695c-.633.157-3.066.165-3.777.008 1.195-3.656 2.39-7.304 3.586-10.965" style="stroke:none;fill-rule:nonzero;fill:#e51b2d;fill-opacity:1"/><g clip-path="url(#a)"><path d="M176 2.754c-.398.855-1.012 1.55-1.465 2.34-.11 0-.183.02-.246-.004-1.687-.63-3.441-.856-5.234-.824-.852.015-1.711-.079-2.551.144-.234.063-.477.113-.703.192-.305.105-.477.32-.5.668.289.37.742.37 1.125.421 1.082.149 2.18.2 3.265.329 1.157.136 2.317.277 3.418.71 1.07.426 1.453 1.137 1.207 2.247-.254 1.152-.976 1.918-1.937 2.535-1.11.71-2.356 1.02-3.625 1.265-1.52.293-3.055.368-4.59.274-1.601-.098-3.195-.293-4.742-.742-.16-.043-.3-.145-.5-.246.41-.872 1.09-1.52 1.52-2.348.788.207 1.535.422 2.285.598.472.109.953.195 1.433.238.824.07 1.656.156 2.48.133.798-.024 1.598-.145 2.383-.29.454-.082.903-.273 1.055-.792.027-.086.008-.188.008-.36-.234-.082-.473-.199-.727-.254a10 10 0 0 0-1.152-.16c-.754-.062-1.512-.062-2.258-.172a43 43 0 0 1-3.363-.633c-.656-.148-1.137-.613-1.543-1.265-.2-1.43.355-2.492 1.559-3.285 1.062-.7 2.253-1.008 3.472-1.282 1.977-.437 3.988-.359 5.98-.253 1.317.07 2.665.207 3.946.816" style="stroke:none;fill-rule:nonzero;fill:#e51b2d;fill-opacity:1"/></g><path d="M79.691 7.965a55 55 0 0 0-.863-3.367c-1.09 1.175-2.09 2.254-3.129 3.37.754.145 3.38.137 3.992-.003m-1.656-6.477h3.727c.097.219.215.426.293.649q1.675 4.914 3.34 9.836c.046.136.074.28.109.422-.55.12-3.89.136-4.668.007-.156-.566-.32-1.168-.5-1.832h-.723c-1.222-.004-2.449.016-3.668-.011-.804-.016-1.601-.098-2.418-.153-.648.7-1.28 1.371-1.89 2.028h-4.485c-.02-.07-.03-.094-.03-.121 0-.02 0-.051.015-.067.054-.078.11-.16.18-.226 2.023-2.024 4.038-4.055 6.078-6.063 1.515-1.492 3.062-2.95 4.64-4.469M2.426 1.27c.703-.145 3.129-.133 3.77.023-.071.273-.13.55-.216.82Q5.148 4.61 4.305 7.102c-.16.468-.258.941-.157 1.453.493.855 1.36 1.039 2.243 1.11.875.065 1.757.07 2.62-.142.876-.214 1.665-.593 2.216-1.332.214-.285.359-.636.472-.976.602-1.777 1.188-3.559 1.778-5.34.07-.207.144-.414.238-.68 1.223.004 2.45-.093 3.742.07-.074.294-.113.505-.18.704-.636 1.922-1.297 3.836-1.914 5.761-.574 1.782-1.777 2.915-3.48 3.606-1.254.508-2.547.8-3.895.867-.73.035-1.465.16-2.183.113-1.532-.101-3.059-.261-4.438-1.043-1.113-.625-1.613-1.64-1.25-2.886.477-1.637 1.031-3.25 1.559-4.871.25-.762.508-1.52.75-2.246M114.898 1.785l-2.609 7.86c.07.082.098.148.129.148.727.062 1.453.152 2.18.16 1.957.024 3.914.012 5.87.016.239 0 .477.02.79.035-.301.902-.574 1.726-.836 2.523-.586.141-11.91.164-12.922.032 1.176-3.59 2.348-7.168 3.531-10.774zM56.672 1.488c-.899 2.758-1.762 5.418-2.656 8.172l8.968.024c-.187.949-.539 1.742-.789 2.558-.586.14-12.164.145-12.89-.008 1.183-3.586 2.36-7.164 3.539-10.746zM125.578 12.605h-3.785c.539-1.882 1.191-3.656 1.754-5.453.555-1.789 1.172-3.558 1.77-5.355h3.785c-.493 1.84-1.125 3.613-1.711 5.406-.59 1.8-1.207 3.598-1.813 5.402M89.89 1.617c1.227 0 2.372 0 3.52.004.063 0 .13.05.274.113l-3.551 10.668c-.73.133-3.207.121-3.82-.02zM133.719 0c-.02.023-.04.047-.024.027l.028-.023z" style="stroke:none;fill-rule:nonzero;fill:#e51b2d;fill-opacity:1"/></svg>
